svgs/bookmate.svg

<svg width="186" height="192" viewBox="0 0 186 192" fill="none" xmlns="http://www.w3.org/2000/svg">
<path d="M143.533 132.546V170H35V22L89.2667 61.7407L143.533 22V98.7453" stroke="black" stroke-width="12" stroke-linecap="round" stroke-linejoin="round"/>
<path d="M117.496 101.168C117.486 101.34 117.475 101.512 117.462 101.684C117.376 106.686 115.998 111.581 113.463 115.894C110.927 120.206 107.319 123.79 102.989 126.297C98.5783 128.843 93.575 130.184 88.482 130.184C83.389 130.184 78.3857 128.843 73.975 126.297C69.6448 123.791 66.0363 120.207 63.4999 115.894C60.9635 111.581 59.5855 106.686 59.4995 101.684C59.4866 101.512 59.4752 101.34 59.4653 101.168H117.496ZM117.496 101.168C117.506 101.34 117.517 101.512 117.53 101.684C117.616 106.686 118.994 111.581 121.529 115.894C124.065 120.206 127.673 123.79 132.003 126.297C136.414 128.844 141.418 130.185 146.511 130.185C151.605 130.185 156.609 128.844 161.02 126.297C165.349 123.79 168.957 120.206 171.493 115.894C174.029 111.581 175.407 106.686 175.492 101.684C175.505 101.512 175.517 101.34 175.527 101.168H117.496Z" stroke="black" stroke-width="12" stroke-linecap="round" stroke-linejoin="round"/>
</svg>

<svg width="186" height="192" viewBox="0 0 186 192" fill="none" xmlns="http://www.w3.org/2000/svg"><path d="M143.533 132.546V170H35V22l54.267 39.74L143.533 22v76.745" stroke="#000" stroke-width="12" stroke-linecap="round" stroke-linejoin="round"/><path d="M117.496 101.168c-.01.172-.021.344-.034.516a29.022 29.022 0 0 1-14.473 24.613 29.02 29.02 0 0 1-29.014 0A29.01 29.01 0 0 1 59.5 101.684a29.78 29.78 0 0 1-.035-.516h58.031Zm0 0c.01.172.021.344.034.516a29.022 29.022 0 0 0 14.473 24.613 29.014 29.014 0 0 0 29.017 0 29.008 29.008 0 0 0 14.472-24.613c.013-.172.025-.344.035-.516h-58.031Z" stroke="#000" stroke-width="12" stroke-linecap="round" stroke-linejoin="round"/></svg>
